X: 1
T: String Quartet in G major opus 1 no 4 mvt 1
C: Franz Joseph Haydn
%%abc-version 2.0
%%abcx-abcm2ps-target-version 5.9.1 (29 Sep 2008)
%%abc-creator hum2abc beta
%%abcx-conversion-date 2021/02/14 14:38:30
%%abc-copyright Copyright (c) 1994, 2000 Center for Computer Assisted Research in the Humanities
%%abc-edited-by Frances Bennion
%%abcx-initial-encoding-date 1997/04/15
%%gracespace 0 6 6
%%humdrum-veritas 1383160782
%%humdrum-veritas-data 3181296602
%%linebreak <none>
%%barnumbers 0
L: 1/8
M: 3/8
N: Derived from op01n4-01.krn
Q: "Presto"
%%staves [1 2 3 4]
V: 1
V: 2
V: 3 clef=alto
V: 4 clef=bass
K: G
[V:1][B,G] z2 [I:setbarnb2] |
[V:2]z D B, |
[V:3]z B, G, |
[V:4]G,, z2 |
[V:1][FA,] z2 |
[V:2]z C A, |
[V:3]z A, C |
[V:4]D, z2 |
[V:1][cF] z2 |
[V:2]z A F |
[V:3]z F D |
[V:4]D, z2 |
[V:1][GB] z2 |
[V:2]z G B |
[V:3]z B, G |
[V:4]G, z2 |
[V:1][DgB] d d |
[V:2]z3 |
[V:3]z3 |
[V:4]G, B, G, |
[V:1]d2 c/A/ |
[V:2][Dac] c c |
[V:3]F A F |
[V:4]D,2 z |
[V:1][BgD] d d |
[V:2]B2 z |
[V:3]G2 z |
[V:4]G, B, G, |
[V:1]d2 c/A/ |
[V:2][aDc] c c |
[V:3]F A F |
[V:4]D,2 z |
[V:1]G c/B/ e/d/ |
[V:2]B2 z |
[V:3]G2 z |
[V:4]G,2 z |
[V:1]g/f/ a/g/ b/g/ |
[V:2]z3 |
[V:3]z3 |
[V:4]z3 |
[V:1]d2 c |
[V:2]B2 A |
[V:3]D D D |
[V:4]D, D, D, |
[V:1]B z2 |
[V:2]G z2 |
[V:3]G B, D |
[V:4]G, B,, D, |
[V:1][GB,] z2 |
[V:2]z D B, |
[V:3]G, B, G, |
[V:4]G,, z2 |
[V:1][FA,] z2 |
[V:2]z C A, |
[V:3]z A, C |
[V:4]D, z2 |
[V:1][Fc] z2 |
[V:2]z A F |
[V:3]z C A, |
[V:4]D, z2 |
[V:1][BG] z2 |
[V:2]z G B |
[V:3]z B, G |
[V:4]G, z2 |
[V:1]b2 B/^c/ |
[V:2][g2B2D2] z |
[V:3][B2D2G,2] z |
[V:4]G,2 G, |
[V:1]d/A/ G/F/ E/D/ |
[V:2][A2D2] z |
[V:3]D2 B, |
[V:4]F,2 ^G, |
[V:1]^C/E/ G/E/ F/D/ |
[V:2]z ^c d |
[V:3]A, z2 |
[V:4]A, z2 |
[V:1]A, z2 |
[V:2]z ^c d |
[V:3]^C/E/ G/E/ F/D/ |
[V:4]A,, z2 |
[V:1]^C/E/ G/E/ F/D/ |
[V:2]z ^c d |
[V:3]A, z2 |
[V:4]A,, z2 |
[V:1]A, z2 |
[V:2]z ^C D |
[V:3]^C/E/ G/E/ F/D/ |
[V:4]A,, z2 |
[V:1]^c/e/ g/e/ f/d/ |
[V:2]z ^C D |
[V:3]A, z2 |
[V:4]A,, z2 |
[V:1]^c/d/ e/c/ A/G/ |
[V:2]A,3 |
[V:3]E3 |
[V:4]A,,2 ^C, |
[V:1]F2 z |
[V:2]A, z F/A/ |
[V:3]D2 z |
[V:4]D,2 D |
[V:1]z2 a |
[V:2]G/B/ F/A/ E/A/ |
[V:3]z3 |
[V:4]E D ^C |
[V:1]A z2 |
[V:2]F/A/ d/A/ F/A/ |
[V:3]z2 d |
[V:4]D D, z |
[V:1]z2 a |
[V:2]G/A/ F/A/ E/A/ |
[V:3]e d ^c |
[V:4]z3 |
[V:1]A z2 |
[V:2]F/A/ d/A/ F/A/ |
[V:3]d D z |
[V:4]z2 D |
[V:1]z2 a |
[V:2]G/A/ F/A/ E/A/ |
[V:3]z3 |
[V:4]E D ^C |
[V:1]A z2 |
[V:2]F/A/ d/A/ E/A/ |
[V:3]z2 ^c |
[V:4]D D, ^C |
[V:1]z3 |
[V:2]F/A/ E/A/ D/A/ |
[V:3]d ^c B |
[V:4]D ^C B, |
[V:1]^c'3 |
[V:2]^C A A- |
[V:3]A E E |
[V:4]A, A, A, |
[V:1]e'3 |
[V:2]A ^c c- |
[V:3]E ^C C |
[V:4]A,, A, A, |
[V:1]g'3 |
[V:2]c e e |
[V:3]^C C C |
[V:4]A,, A, A, |
[V:1]g3 |
[V:2]A,2 A |
[V:3]^C D E |
[V:4]A, B, ^C |
[V:1]g/f/ b/a/ d' |
[V:2]A z2 |
[V:3]D2 z |
[V:4]D2 z |
[V:1]A3 |
[V:2]F/d/ F/d/ F/d/ |
[V:3]A A A |
[V:4]A, A, A, |
[V:1]e3 |
[V:2]E/^c/ E/c/ E/c/ |
[V:3]A, A, A, |
[V:4]A,, A,, A,, |
[V:1]d z a |
[V:2]D z f |
[V:3]D2 z |
[V:4]D,2 z |
[V:1]f z2 |
[V:2]d z2 |
[V:3]z2 A |
[V:4]z2 F, |
[V:1]z2 a |
[V:2]z2 f |
[V:3]F z2 |
[V:4]D, z2 |
[V:1]f z2 |
[V:2]d z2 |
[V:3]z2 A |
[V:4]z2 F, |
[V:1]z2 d |
[V:2]z2 G- |
[V:3]F z _B |
[V:4]D, z _B, |
[V:1]^c z d |
[V:2]G z G- |
[V:3]A z _B |
[V:4]A, z _B, |
[V:1]^c z d |
[V:2]G z G- |
[V:3]A z _B |
[V:4]A, z _B, |
[V:1]^c z d |
[V:2]G z G |
[V:3]A z G |
[V:4]A, z _B, |
[V:1]^c2 z |
[V:2]G2 z |
[V:3]E2 z |
[V:4]A,2 z |
[V:1]D F A |
[V:2]D F A |
[V:3]D F A |
[V:4]D, F, A, |
[V:1]d f a |
[V:2]d2 z |
[V:3]d2 z |
[V:4]D2 z |
[V:1]e3/ f//g// f |
[V:2]A2 d |
[V:3]^C E D |
[V:4]^C2 D |
[V:1]e3/ f//g// f |
[V:2]A2 d |
[V:3]^C E D |
[V:4]^C2 D |
[V:1]D F A |
[V:2]D F A |
[V:3]D F A |
[V:4]D, F, A, |
[V:1]d f a |
[V:2]d2 z |
[V:3]d2 z |
[V:4]D2 z |
[V:1]b3/ ^c'//d'// a |
[V:2][d3-D3] |
[V:3]G2 F |
[V:4]G,2 F, |
[V:1]b3/ ^c'//d'// a |
[V:2][d3D3] |
[V:3]G2 F |
[V:4]G,2 F, |
[V:1]g f e |
[V:2][dD] d ^c |
[V:3]B A A, |
[V:4]B, A, A,, |
[V:1]d2 z |
[V:2]d2 z |
[V:3]D2 z |
[V:4]D,2 z |
[V:1][dF] z2 |
[V:2]z A F |
[V:3]z F D |
[V:4]D, z2 |
[V:1][E^c] z2 |
[V:2]z G E |
[V:3]z E G |
[V:4]A, z2 |
[V:1][g^c] z2 |
[V:2]z e ^c |
[V:3]z G E |
[V:4]A, z2 |
[V:1][df] z2 |
[V:2]z d f |
[V:3]z F A |
[V:4]D z2 |
[V:1]D a f |
[V:2]D2 z |
[V:3]D2 z |
[V:4]D,2 z |
[V:1]d D ^D |
[V:2]z D ^D |
[V:3]z D ^D |
[V:4]z D, ^D, |
[V:1]E b ^g |
[V:2]E2 z |
[V:3]E2 z |
[V:4]E,2 z |
[V:1]e E D |
[V:2]z E D |
[V:3]z E D |
[V:4]z E, D, |
[V:1]C c B |
[V:2]C c B |
[V:3]C c B |
[V:4]C, C B, |
[V:1]A A, ^A, |
[V:2]c A, ^A, |
[V:3]A A, ^A, |
[V:4]A, A,, ^A,, |
[V:1]B,2 ^d/B/ |
[V:2]B,3 |
[V:3]B, B A |
[V:4]B,, B, A, |
[V:1]e/g/ f/a/ g/b/ |
[V:2]B,3- |
[V:3]G F E |
[V:4]G, F, E, |
[V:1]B2 ^d/B/ |
[V:2]B, B A |
[V:3]B3- |
[V:4]B,, B, A, |
[V:1]e/g/ f/a/ g/b/ |
[V:2]G F E |
[V:3]B3 |
[V:4]G, F, E, |
[V:1]c' z c |
[V:2]c/e/ d/f/ e/g/ |
[V:3]A3- |
[V:4]A,2 z |
[V:1]f/a/ g/b/ a/c'/ |
[V:2]f z F |
[V:3]A3 |
[V:4]D,2 z |
[V:1]b z B |
[V:2]B/d/ c/e/ d/f/ |
[V:3]G3- |
[V:4]G,2 z |
[V:1]e/g/ f/a/ g/b/ |
[V:2]e z E |
[V:3]G3 |
[V:4]C,2 z |
[V:1]a z A |
[V:2]A/^c/ B/^d/ c/e/ |
[V:3]F3- |
[V:4]F,2 z |
[V:1]^d/f/ e/g/ f/a/ |
[V:2]^d z2 |
[V:3]F3 |
[V:4]B,,2 z |
[V:1]g3/ a//b// f |
[V:2]B3- |
[V:3]E2 ^D |
[V:4]E,2 ^D, |
[V:1]g3/ a//b// ^d |
[V:2]B3 |
[V:3]E2 F |
[V:4]E,2 F, |
[V:1]e3 |
[V:2]B B B |
[V:3]G G G |
[V:4]G, G, G, |
[V:1]e'3 |
[V:2]B B B |
[V:3]G G G |
[V:4]G, G, G, |
[V:1]c'3- |
[V:2]c c/B/ A/G/ |
[V:3]A A/G/ F/E/ |
[V:4]A, A,/G,/ F,/E,/ |
[V:1]c' b/a/ g/f/ |
[V:2]F2 B |
[V:3]^D2 D |
[V:4]^D,2 D, |
[V:1]g e ^d |
[V:2]B G F |
[V:3]E B B, |
[V:4]E, B, B,, |
[V:1]e z b/g/ |
[V:2]E2 z |
[V:3]E2 z |
[V:4]E,2 z |
[V:1]e B G |
[V:2]e B G |
[V:3]e B G |
[V:4]E B, G, |
[V:1]E2 z |
[V:2]E2 z |
[V:3]E2 z |
[V:4]E,2 z |
[V:1]b ^g =f |
[V:2]z3 |
[V:3]z3 |
[V:4]z3 |
[V:1]d B ^G |
[V:2]z3 |
[V:3]z3 |
[V:4]z3 |
[V:1]=F2 E/D/ |
[V:2]D2 C/B,/ |
[V:3]B,3 |
[V:4]^G,3 |
[V:1]C ^G A |
[V:2]A,2 z |
[V:3]C z2 |
[V:4]A,2 z |
[V:1]=F E/D/ C/B,/ |
[V:2]=F E/D/ C/B,/ |
[V:3]=F E/D/ C/B,/ |
[V:4]=F, E,/D,/ C,/B,,/ |
[V:1]A,2 z |
[V:2]A,2 z |
[V:3]A,2 z |
[V:4]A,,2 z |
[V:1][acD] c c |
[V:2][A2D2] z |
[V:3]D2 z |
[V:4]F,2 z |
[V:1]c/B/ e/d/ d |
[V:2][g2B2D2] z |
[V:3]D2 z |
[V:4]G,2 z |
[V:1][Dac] c c |
[V:2][A2D2] z |
[V:3]D2 z |
[V:4]F,2 z |
[V:1]c/B/ e/d/ d |
[V:2][g2B2D2] z |
[V:3]D2 z |
[V:4]G,2 z |
[V:1]d c/B/ A/G/ |
[V:2]d c/B/ A/G/ |
[V:3]B, C ^C |
[V:4]B,, C, ^C, |
[V:1]D z2 |
[V:2]D2 z |
[V:3]D E/D/ E/F/ |
[V:4]D, E,/D,/ E,/F,/ |
[V:1][GB,] z2 |
[V:2]z D B, |
[V:3]G B, G, |
[V:4]G, z2 |
[V:1][A,F] z2 |
[V:2]z C A, |
[V:3]z A, C |
[V:4]D, z2 |
[V:1][cF] z2 |
[V:2]z A F |
[V:3]z C A, |
[V:4]D, z2 |
[V:1][BG] z2 |
[V:2]z G B |
[V:3]z B, G |
[V:4]G, z2 |
[V:1][gDB] d d |
[V:2]z3 |
[V:3]z3 |
[V:4]G, B, G, |
[V:1]d2 c/A/ |
[V:2][aDc] c c |
[V:3]F A F |
[V:4]D,2 z |
[V:1][gBD] d d |
[V:2]B2 z |
[V:3]G2 z |
[V:4]G, B, G, |
[V:1]d2 c/A/ |
[V:2][Dac] c c |
[V:3]F A F |
[V:4]D,2 z |
[V:1]G c/B/ e/d/ |
[V:2]B2 z |
[V:3]G2 z |
[V:4]G,2 z |
[V:1]g/f/ a/g/ b/g/ |
[V:2]z3 |
[V:3]z3 |
[V:4]z3 |
[V:1]d2 c |
[V:2]B2 A |
[V:3]D D D |
[V:4]D, D, D, |
[V:1]B z2 |
[V:2]G z2 |
[V:3]G B, D |
[V:4]G, B,, D, |
[V:1][B,G] z2 |
[V:2]z D B, |
[V:3]G, B, G, |
[V:4]G,,2 z |
[V:1][FA,] z2 |
[V:2]z C A, |
[V:3]z A, C |
[V:4]D, z2 |
[V:1][Fc] z2 |
[V:2]z A F |
[V:3]z C A, |
[V:4]D, z2 |
[V:1][GB] z2 |
[V:2]z G B |
[V:3]z B, G |
[V:4]G, z2 |
[V:1][c2e2C2G2] e/f/ |
[V:2][c2G,2E2] z |
[V:3][C,2G,2E2] z |
[V:4]C2 C, |
[V:1]g/d/ c/B/ A/G/ |
[V:2][G2G,2] z |
[V:3]G2 E |
[V:4]B,,2 ^C, |
[V:1]F/A/ c/A/ B/G/ |
[V:2]z f g |
[V:3]D z2 |
[V:4]D, z2 |
[V:1]D z2 |
[V:2]z f g |
[V:3]F/A/ c/A/ B/G/ |
[V:4]D, z2 |
[V:1]F/A/ c/A/ B/G/ |
[V:2]z f g |
[V:3]D z2 |
[V:4]D, z2 |
[V:1]D z2 |
[V:2]z f g |
[V:3]F/A/ c/A/ B/G/ |
[V:4]D, z2 |
[V:1]F/A/ c/A/ B/G/ |
[V:2]z F G |
[V:3]D z2 |
[V:4]D, z2 |
[V:1]F/G/ A/F/ D/C/ |
[V:2]D3 |
[V:3]A,3 |
[V:4]D,2 F, |
[V:1]B,2 z |
[V:2]G, z B,/D/ |
[V:3]G,2 z |
[V:4]G, G,, G, |
[V:1]z2 d |
[V:2]C/D/ B,/D/ A,/D/ |
[V:3]z3 |
[V:4]A, G, F, |
[V:1]D z2 |
[V:2]B,/D/ G/D/ B,/D/ |
[V:3]z2 G |
[V:4]G, G,, z |
[V:1]z2 d |
[V:2]C/D/ B,/D/ A,/D/ |
[V:3]A G F |
[V:4]z3 |
[V:1]D z2 |
[V:2]B,/D/ G/D/ B,/D/ |
[V:3]G G, z |
[V:4]z2 G, |
[V:1]z2 d |
[V:2]C/D/ B,/D/ A,/D/ |
[V:3]z3 |
[V:4]A, G, F, |
[V:1]D z2 |
[V:2]B,/D/ G/D/ A,/D/ |
[V:3]z2 F |
[V:4]G, G,, F, |
[V:1]z3 |
[V:2]B,/D/ A,/D/ G,/D/ |
[V:3]G F E |
[V:4]G, F, E, |
[V:1]f3 |
[V:2]D D D |
[V:3]D A, A, |
[V:4]D, D, D, |
[V:1]a3 |
[V:2]D F F |
[V:3]A, F, F |
[V:4]D, D, D, |
[V:1]c'3 |
[V:2]F A A |
[V:3]F F F |
[V:4]D, D, D, |
[V:1]e'2 e'/d'//c'// |
[V:2]c2 c/B//A// |
[V:3]F, F, F, |
[V:4]F,, F,, F,, |
[V:1]b d' g' |
[V:2]G2 z |
[V:3]G,2 z |
[V:4]G,,2 z |
[V:1]D3 |
[V:2]B,/G/ B,/G/ B,/G/ |
[V:3]D D D |
[V:4]D, D, D, |
[V:1]A3 |
[V:2]A,/F/ A,/F/ A,/F/ |
[V:3]D D D |
[V:4]D, D, D, |
[V:1]G z d' |
[V:2]G, z b |
[V:3]G,2 z |
[V:4]G,,2 z |
[V:1]b z2 |
[V:2]g z2 |
[V:3]z2 d |
[V:4]z2 B, |
[V:1]z2 d' |
[V:2]z2 b |
[V:3]B z2 |
[V:4]G, z2 |
[V:1]b z2 |
[V:2]g z2 |
[V:3]z2 d |
[V:4]z2 B, |
[V:1]z2 g |
[V:2]z2 c- |
[V:3]B z _E |
[V:4]G, z _E, |
[V:1]f z g |
[V:2]c z c- |
[V:3]D z _E |
[V:4]D, z _E, |
[V:1]f z g |
[V:2]c z c- |
[V:3]D z _E |
[V:4]D, z _E, |
[V:1]f z g |
[V:2]c z c |
[V:3]D z C |
[V:4]D, z _E, |
[V:1]f2 z |
[V:2]c2 z |
[V:3]A,3 |
[V:4]D,2 z |
[V:1]G B d |
[V:2]G B d |
[V:3]G, B, D |
[V:4]G,, B,, D, |
[V:1]g b d' |
[V:2]g2 z |
[V:3]G2 z |
[V:4]G,2 z |
[V:1]a3/ b//c'// b |
[V:2]d2 g |
[V:3]F A G |
[V:4]F,2 G, |
[V:1]a3/ b//c'// b |
[V:2]d2 g |
[V:3]F A G |
[V:4]F,2 G, |
[V:1]G B d |
[V:2]G B d |
[V:3]G, B, D |
[V:4]G,, B,, D, |
[V:1]g b d' |
[V:2]g2 z |
[V:3]G2 z |
[V:4]G,2 z |
[V:1]e3/ f//g// d |
[V:2][G,3-G3] |
[V:3]c2 B |
[V:4]C2 B, |
[V:1]e3/ f//g// d |
[V:2][G,3G3] |
[V:3]c2 B |
[V:4]C2 B, |
[V:1]c B A |
[V:2][G,G] G F |
[V:3]c d D |
[V:4]C D D, |
[V:1]G2 z |]
[V:2]G2 z |]
[V:3]G2 z |]
[V:4]G,2 z |]

